X: 063
T: Hessian Grenadier's march
%R: march, jig
Z: 2017 John Chambers <jc:trillian.mit.edu>
B: John Treat - "Gamut for the Fifes", 1779, p.5 #3
F: https://archive.org/details/GamutFortheFifes
N: The last bar actually has | GG G2 :|
M: 6/8
L: 1/8
K: G
% - - - - - - - - - - - - - - - - - - - - - - - - -
D |\
G2G AGF | GBd cAF | Ged cBA | BAG FED |\
G2G AGF | GBd cAF | Ged cBA | G2G G2 :|
|: c/d/ |\
ecA ABA | dBG GAG | EFG ABc | BAG FED |\
ecA ABA | dBG GAG | FcB AGF | G2G G2 :|
% - - - - - - - - - - - - - - - - - - - - - - - - -
